X:511
T:Maid of Islay
R:Strathspey
B:The Athole Collection
M:C
L:1/8
K:F
F<F c>A c<d c<A|F<F ~c>A d>c A2|F<F c>A c>d c<A|d>e~f>d c<A G2:|
c|~f>g f<d c>dc>A|~f>g f<d c>dA>c|~f>g f<d ~c>dc>A|d>ef>d c<A G>c|
~f>gf>d ~c>d c<A|~f>gf>d c<a A>c|f<a d>f c>df>g|a/g/f/e/ ~f>dc>d A>f||

